Flat-Remix-Dark/apps/scalable/gerbview.svg

<svg xmlns="http://www.w3.org/2000/svg" xmlns:xlink="http://www.w3.org/1999/xlink" width="384pt" height="384pt" version="1.1" viewBox="0 0 384 384"> <defs> <filter id="alpha" width="100%" height="100%" x="0%" y="0%" filterUnits="objectBoundingBox"> <feColorMatrix in="SourceGraphic" type="matrix" values="0 0 0 0 1 0 0 0 0 1 0 0 0 0 1 0 0 0 1 0"/> </filter> <mask id="mask0"> <g filter="url(#alpha)"> <rect width="384" height="384" x="0" y="0" style="fill:rgb(0%,0%,0%);fill-opacity:0.2"/> </g> </mask> <clipPath id="clip1"> <rect width="384" height="384" x="0" y="0"/> </clipPath> <g id="surface5" clip-path="url(#clip1)"> <path style="fill:rgb(0%,0%,0%)" d="M 24 337.199219 L 24 349.199219 C 24 358.5 31.496094 366 40.804688 366 L 343.203125 366 C 352.503906 366 360.003906 358.5 360.003906 349.199219 L 360.003906 337.199219 C 360.003906 346.5 352.503906 354 343.203125 354 L 40.804688 354 C 31.503906 354 24.003906 346.5 24.003906 337.199219 Z M 24 337.199219"/> </g> <mask id="mask1"> <g filter="url(#alpha)"> <rect width="384" height="384" x="0" y="0" style="fill:rgb(0%,0%,0%);fill-opacity:0.2"/> </g> </mask> <clipPath id="clip2"> <rect width="384" height="384" x="0" y="0"/> </clipPath> <g id="surface8" clip-path="url(#clip2)"> <path style="fill:rgb(100.000%,100.000%,100.000%)" d="M 40.804688 24 C 31.496094 24 24 31.496094 24 40.804688 L 24 46.804688 C 24 37.496094 31.496094 30 40.804688 30 L 343.207031 30 C 352.507812 30 360 37.496094 360 46.804688 L 360 40.804688 C 360 31.496094 352.507812 24 343.207031 24 Z M 40.804688 24"/> </g> <mask id="mask2"> <g filter="url(#alpha)"> <rect width="384" height="384" x="0" y="0" style="fill:rgb(0%,0%,0%);fill-opacity:0.2"/> </g> </mask> <clipPath id="clip3"> <rect width="384" height="384" x="0" y="0"/> </clipPath> <g id="surface11" clip-path="url(#clip3)"> <path style="fill-rule:evenodd;fill:rgb(0%,0%,0%)" d="M 383.746094 275.089844 C 381.046875 326.011719 338.996094 365.9375 288 366 C 237.664062 366 195.875 327.117188 192.253906 276.910156 C 192.121094 278.605469 192.039062 280.300781 192 282 C 192 335.019531 234.980469 378 288 378 C 341.019531 378 384 335.019531 384 282 C 384 279.695312 383.914062 277.386719 383.746094 275.089844 Z M 383.746094 275.089844"/> </g> </defs> <g> <use mask="url(#mask0)" xlink:href="#surface5"/> <path style="fill:rgb(100.000%,100.000%,100.000%)" d="M 360 343.199219 L 360 40.800781 C 360 31.523438 352.476562 24 343.199219 24 L 40.800781 24 C 31.523438 24 24 31.523438 24 40.800781 L 24 343.199219 C 24 352.476562 31.523438 360 40.800781 360 L 343.199219 360 C 352.476562 360 360 352.476562 360 343.199219 Z M 360 343.199219"/> <use mask="url(#mask1)" xlink:href="#surface8"/> <path style="fill:rgb(29.803%,29.803%,29.803%)" d="M 108.121094 84 C 100.015625 83.855469 99.945312 95.65625 108.050781 95.601562 L 148.851562 95.828125 L 168.117188 114.609375 L 168.117188 186.117188 C 168.003906 193.960938 180.234375 193.960938 180.117188 186.117188 L 180.117188 171.730469 C 180.125 171.59375 180.125 171.457031 180.117188 171.324219 L 180.117188 112.210938 C 180.113281 110.675781 179.476562 109.210938 178.355469 108.128906 L 155.625 85.96875 C 154.511719 84.878906 152.992188 84.257812 151.402344 84.246094 L 108.117188 84 Z M 245.902344 84.160156 C 242.589844 84.210938 239.945312 86.847656 239.996094 90.050781 L 239.996094 186.117188 C 239.882812 193.960938 252.113281 193.960938 251.996094 186.117188 L 251.996094 171.730469 C 252.003906 171.59375 252.003906 171.460938 251.996094 171.324219 L 251.996094 90.046875 C 252.050781 86.773438 249.289062 84.105469 245.902344 84.15625 Z M 174.019531 84.183594 C 168.632812 84.164062 165.949219 90.484375 169.800781 94.128906 L 192 114.609375 L 192 171.324219 C 191.988281 171.519531 191.988281 171.714844 192 171.910156 L 192 186.117188 C 191.886719 193.960938 204.113281 193.960938 204 186.117188 L 204 112.210938 C 204.003906 110.679688 203.382812 109.210938 202.273438 108.121094 L 178.332031 85.960938 C 177.207031 84.824219 175.652344 84.179688 174.023438 84.171875 Z M 198.019531 84.183594 C 192.632812 84.164062 189.949219 90.484375 193.800781 94.128906 L 215.976562 114.609375 L 215.976562 186.117188 C 215.859375 193.960938 228.089844 193.960938 227.976562 186.117188 L 227.976562 171.730469 C 227.980469 171.59375 227.980469 171.457031 227.976562 171.324219 L 227.976562 112.210938 C 227.976562 110.683594 227.355469 109.214844 226.246094 108.128906 L 202.308594 85.96875 C 201.1875 84.839844 199.644531 84.191406 198.023438 84.179688 Z M 198.019531 84.183594"/> <path style="fill:rgb(29.803%,29.803%,29.803%)" d="M 162.636719 228.003906 C 159.332031 228.0625 156.691406 231.039062 156.730469 234.660156 L 156.730469 250.980469 C 156.726562 251.132812 156.726562 251.289062 156.730469 251.441406 L 156.730469 273.878906 L 145.058594 286.753906 L 102.097656 286.753906 C 99.933594 286.71875 97.921875 287.964844 96.828125 290.015625 C 95.738281 292.066406 95.738281 294.597656 96.828125 296.648438 C 97.921875 298.699219 99.933594 299.945312 102.097656 299.910156 L 147.566406 299.910156 C 149.164062 299.917969 150.699219 299.222656 151.832031 297.984375 L 166.972656 281.203125 C 168.097656 279.972656 168.730469 278.300781 168.734375 276.558594 L 168.734375 234.640625 C 168.753906 232.863281 168.117188 231.15625 166.96875 229.902344 C 165.824219 228.648438 164.261719 227.957031 162.640625 227.984375 Z M 197.910156 228.003906 C 194.605469 228.0625 191.964844 231.039062 192.007812 234.664062 L 192.007812 293.335938 C 191.976562 295.707031 193.113281 297.914062 194.980469 299.109375 C 196.851562 300.304688 199.160156 300.304688 201.03125 299.109375 C 202.898438 297.914062 204.035156 295.707031 204.007812 293.335938 L 204.007812 251.90625 C 204.011719 251.753906 204.011719 251.597656 204.007812 251.445312 L 204.007812 234.664062 C 204.023438 232.886719 203.386719 231.179688 202.242188 229.925781 C 201.09375 228.671875 199.53125 227.980469 197.914062 228.007812 Z M 221.933594 228.003906 C 218.621094 228.046875 215.964844 231.03125 216.007812 234.664062 L 216.007812 251.445312 C 215.996094 251.667969 215.996094 251.890625 216.007812 252.113281 L 216.007812 276.578125 C 216.011719 278.316406 216.644531 279.976562 217.765625 281.203125 L 232.902344 297.984375 C 234.035156 299.226562 235.570312 299.921875 237.167969 299.914062 L 282.640625 299.914062 C 284.804688 299.945312 286.816406 298.699219 287.90625 296.652344 C 288.996094 294.601562 288.996094 292.066406 287.90625 290.019531 C 286.816406 287.96875 284.804688 286.722656 282.640625 286.753906 L 239.679688 286.753906 L 228.015625 273.886719 L 228.015625 234.675781 C 228.03125 232.90625 227.398438 231.199219 226.257812 229.945312 C 225.113281 228.695312 223.558594 228 221.945312 228.019531 Z M 245.980469 228.003906 C 242.675781 228.0625 240.035156 231.039062 240.074219 234.660156 L 240.074219 250.390625 C 239.917969 251.535156 240.039062 252.703125 240.425781 253.78125 C 240.464844 253.886719 240.503906 253.988281 240.542969 254.089844 C 240.953125 255.148438 241.605469 256.066406 242.441406 256.761719 L 256.972656 272.824219 C 258.101562 274.074219 259.636719 274.777344 261.238281 274.777344 L 276.378906 274.777344 C 278.542969 274.8125 280.554688 273.5625 281.644531 271.515625 C 282.738281 269.464844 282.738281 266.929688 281.644531 264.882812 C 280.554688 262.832031 278.542969 261.585938 276.378906 261.621094 L 263.722656 261.621094 L 252.074219 248.71875 L 252.074219 234.660156 C 252.09375 232.882812 251.457031 231.175781 250.308594 229.921875 C 249.160156 228.667969 247.601562 227.976562 245.980469 228.003906 Z M 245.980469 228.003906"/> <path style="fill:rgb(29.803%,29.803%,29.803%)" d="M 90.265625 108 C 86.804688 108 84 110.617188 84 113.84375 L 84 270.15625 C 84 273.382812 86.804688 276 90.265625 276 L 129.832031 276 C 131.503906 276 133.109375 275.375 134.285156 274.265625 L 142.191406 266.824219 C 143.351562 265.730469 144.003906 264.257812 144.003906 262.71875 L 144.003906 128.726562 C 144.003906 127.191406 143.351562 125.714844 142.191406 124.625 L 126.363281 109.738281 C 125.195312 108.632812 123.601562 108.011719 121.9375 108.003906 L 90.269531 108.003906 Z M 90.265625 108"/> <path style="fill:none;stroke-width:2;stroke-linecap:round;stroke-linejoin:round;stroke:rgb(29.803%,29.803%,29.803%)" d="M 27.583984 26.440104 L 42.626302 26.440104 C 44.053385 26.440104 45.210286 27.597005 45.210286 29.024089 L 45.210286 40.417969 C 45.210286 41.845052 44.053385 43.001953 42.626302 43.001953 L 27.583984 43.001953 C 26.156901 43.001953 25 41.845052 25 40.417969 L 25 29.024089 C 25 27.597005 26.156901 26.440104 27.583984 26.440104 Z M 27.583984 26.440104" transform="matrix(6,0,0,6,0,0)"/> <use mask="url(#mask2)" xlink:href="#surface11"/> <path style="fill-rule:evenodd;fill:rgb(83.137%,9.803%,9.803%)" d="M 384 276 C 384 329.019531 341.019531 372 288 372 C 234.980469 372 192 329.019531 192 276 C 192 222.980469 234.980469 180 288 180 C 341.019531 180 384 222.980469 384 276 Z M 384 276"/> <path style="fill-rule:evenodd;fill:rgb(100.000%,100.000%,100.000%)" d="M 288 240 L 288 240.011719 C 276.367188 240.121094 264.664062 242.667969 254.53125 248.179688 C 250.492188 250.703125 245.644531 253.964844 241.992188 257.25 C 236.246094 262.652344 231.324219 268.949219 228 276.011719 C 237.113281 295.308594 257.140625 309.453125 279.175781 311.542969 C 293.632812 313.113281 308.761719 310.710938 321.46875 303.84375 C 325.507812 301.320312 330.355469 298.058594 334.007812 294.773438 C 339.753906 289.359375 344.675781 283.0625 348 276.011719 C 338.890625 256.71875 318.855469 242.578125 296.824219 240.492188 C 293.894531 240.15625 290.941406 240 288 240 Z M 288.023438 252 C 300.863281 251.714844 312.230469 263.207031 311.988281 275.976562 C 312.398438 290.089844 298.339844 302.273438 284.4375 299.636719 C 270.398438 297.988281 260.53125 282.230469 265.148438 268.886719 C 268.101562 259.070312 277.746094 251.898438 288.035156 252.011719 Z M 288 264 C 284.8125 264 281.757812 265.265625 279.507812 267.519531 C 277.257812 269.773438 275.996094 272.828125 276 276.011719 C 276.003906 282.632812 281.375 288 288 288 C 294.625 288 299.996094 282.632812 300 276.011719 C 299.992188 269.394531 294.621094 264.035156 288 264.035156 Z M 288 264"/> </g> </svg>

<svg width="512" height="512" version="1.1" viewBox="0 0 384 384" xmlns="http://www.w3.org/2000/svg" xmlns:xlink="http://www.w3.org/1999/xlink"><defs><filter id="alpha" x="0%" y="0%" width="100%" height="100%"><feColorMatrix in="SourceGraphic" values="0 0 0 0 1 0 0 0 0 1 0 0 0 0 1 0 0 0 1 0"/></filter><mask id="d"><g filter="url(#alpha)"><rect width="384" height="384" fill-opacity=".2"/></g></mask><clipPath id="f"><rect width="384" height="384"/></clipPath><g id="a" clip-path="url(#f)"><path d="m40.805 24c-9.3086 0-16.805 7.4961-16.805 16.805v6c0-9.3086 7.4961-16.805 16.805-16.805h302.4c9.3008 0 16.793 7.4961 16.793 16.805v-6c0-9.3086-7.4922-16.805-16.793-16.805z" fill="#fff"/></g><clipPath id="e"><rect width="384" height="384"/></clipPath></defs><path d="m40.801 24c-11.305 0-20.551 9.0442-20.551 20.102v295.8c0 11.058 9.2461 20.102 20.551 20.102h302.4c11.305 0 20.551-9.0442 20.551-20.102v-295.8c0-11.058-9.2461-20.102-20.551-20.102zm0 7.3362h302.4c7.25 0 13.051 5.6741 13.051 12.766v295.8c0 7.0917-5.8008 12.766-13.051 12.766h-302.4c-7.25 0-13.051-5.6742-13.051-12.766v-295.8c0-7.0917 5.8008-12.766 13.051-12.766z" color="#000000" color-rendering="auto" dominant-baseline="auto" image-rendering="auto" opacity=".2" shape-rendering="auto" solid-color="#000000" style="font-feature-settings:normal;font-variant-alternates:normal;font-variant-caps:normal;font-variant-ligatures:normal;font-variant-numeric:normal;font-variant-position:normal;isolation:auto;mix-blend-mode:normal;shape-padding:0;text-decoration-color:#000000;text-decoration-line:none;text-decoration-style:solid;text-indent:0;text-orientation:mixed;text-transform:none;white-space:normal"/><path d="m360 343.2v-302.4c0-9.2773-7.5234-16.801-16.801-16.801h-302.4c-9.2773 0-16.801 7.5234-16.801 16.801v302.4c0 9.2773 7.5234 16.801 16.801 16.801h302.4c9.2773 0 16.801-7.5234 16.801-16.801z" fill="#fff"/><path transform="scale(.75)" d="m32 447.6v10c0 12.37 10.031 22.4 22.4 22.4h403.2c12.37 0 22.4-10.031 22.4-22.4v-10c1e-5 12.37-10.031 22.4-22.4 22.4h-403.2c-12.37 0-22.4-10.031-22.4-22.4z" opacity=".3" stroke-width="1.3333"/><use width="100%" height="100%" mask="url(#d)" xlink:href="#a"/><g fill="#4a4a4a"><path d="m108.12 84c-8.1055-0.14453-8.1758 11.656-0.0703 11.602l40.801 0.22656 19.266 18.781v71.508c-0.11328 7.8438 12.117 7.8438 12 0v-14.387c8e-3 -0.13672 8e-3 -0.27344 0-0.40625v-59.113c-4e-3 -1.5352-0.64063-3-1.7617-4.082l-22.73-22.16c-1.1133-1.0898-2.6328-1.7109-4.2227-1.7227l-43.285-0.24609zm137.78 0.16016c-3.3125 0.05078-5.957 2.6875-5.9062 5.8906v96.066c-0.11328 7.8438 12.117 7.8438 12 0v-14.387c8e-3 -0.13672 8e-3 -0.26953 0-0.40625v-81.277c0.0547-3.2734-2.707-5.9414-6.0938-5.8906zm-71.883 0.02344c-5.3867-0.01953-8.0703 6.3008-4.2188 9.9453l22.199 20.48v56.715c-0.0117 0.19531-0.0117 0.39062 0 0.58594v14.207c-0.11328 7.8438 12.113 7.8438 12 0v-73.906c4e-3 -1.5312-0.61719-3-1.7266-4.0898l-23.941-22.16c-1.125-1.1367-2.6797-1.7812-4.3086-1.7891zm24 0c-5.3867-0.01953-8.0703 6.3008-4.2188 9.9453l22.176 20.48v71.508c-0.11719 7.8438 12.113 7.8438 12 0v-14.387c4e-3 -0.13672 4e-3 -0.27344 0-0.40625v-59.113c0-1.5274-0.62109-2.9961-1.7305-4.082l-23.938-22.16c-1.1211-1.1289-2.6641-1.7773-4.2852-1.7891z"/><path d="m162.64 228c-3.3047 0.0586-5.9453 3.0352-5.9062 6.6562v16.32c-4e-3 0.15234-4e-3 0.30859 0 0.46094v22.438l-11.672 12.875h-42.961c-2.1641-0.0352-4.1758 1.2109-5.2695 3.2617-1.0898 2.0508-1.0898 4.582 0 6.6328 1.0938 2.0508 3.1055 3.2969 5.2695 3.2617h45.469c1.5976 8e-3 3.1328-0.6875 4.2656-1.9258l15.141-16.781c1.125-1.2305 1.7578-2.9023 1.7617-4.6445v-41.918c0.0195-1.7773-0.61718-3.4844-1.7656-4.7383-1.1445-1.2539-2.707-1.9453-4.3281-1.918zm35.273 0c-3.3047 0.0586-5.9453 3.0352-5.9024 6.6602v58.672c-0.0312 2.3711 1.1055 4.5781 2.9727 5.7734 1.8711 1.1953 4.1797 1.1953 6.0508 0 1.8672-1.1953 3.0039-3.4023 2.9766-5.7734v-41.43c4e-3 -0.15234 4e-3 -0.30859 0-0.46094v-16.781c0.0156-1.7773-0.62109-3.4844-1.7656-4.7383-1.1484-1.2539-2.7109-1.9453-4.3281-1.918zm24.023 0c-3.3125 0.043-5.9688 3.0273-5.9258 6.6602v16.781c-0.0117 0.22266-0.0117 0.44531 0 0.66797v24.465c4e-3 1.7383 0.63672 3.3984 1.7578 4.625l15.137 16.781c1.1328 1.2422 2.668 1.9375 4.2656 1.9297h45.473c2.1641 0.0312 4.1758-1.2148 5.2656-3.2617 1.0898-2.0508 1.0898-4.5859 0-6.6328-1.0898-2.0508-3.1016-3.2969-5.2656-3.2656h-42.961l-11.664-12.867v-39.211c0.0156-1.7695-0.61718-3.4766-1.7578-4.7305-1.1445-1.25-2.6992-1.9453-4.3125-1.9258zm24.047 0c-3.3047 0.0586-5.9453 3.0352-5.9062 6.6562v15.73c-0.15625 1.1445-0.0352 2.3125 0.35156 3.3906 0.0391 0.10547 0.0781 0.20703 0.11719 0.30859 0.41015 1.0586 1.0625 1.9766 1.8984 2.6719l14.531 16.062c1.1289 1.25 2.6641 1.9531 4.2656 1.9531h15.141c2.1641 0.0352 4.1758-1.2148 5.2656-3.2617 1.0938-2.0508 1.0938-4.5859 0-6.6328-1.0898-2.0508-3.1016-3.2969-5.2656-3.2617h-12.656l-11.648-12.902v-14.059c0.0195-1.7774-0.61719-3.4844-1.7656-4.7383-1.1484-1.2539-2.707-1.9453-4.3281-1.918z"/><path d="m90.266 108c-3.4609 0-6.2656 2.6172-6.2656 5.8438v156.31c0 3.2266 2.8047 5.8438 6.2656 5.8438h39.566c1.6719 0 3.2773-0.625 4.4531-1.7344l7.9062-7.4414c1.1602-1.0938 1.8125-2.5664 1.8125-4.1055v-133.99c0-1.5352-0.65235-3.0117-1.8125-4.1016l-15.828-14.887c-1.168-1.1055-2.7617-1.7266-4.4258-1.7344h-31.668z"/></g><path d="m165.5 158.64h90.254c8.5625 0 15.504 6.9414 15.504 15.504v68.363c0 8.5625-6.9414 15.504-15.504 15.504h-90.254c-8.5625 0-15.504-6.9414-15.504-15.504v-68.363c0-8.5625 6.9414-15.504 15.504-15.504zm0 0" fill="none" stroke="#4a4a4a" stroke-linecap="round" stroke-linejoin="round" stroke-width="12"/><g fill-rule="evenodd"><path d="m384 283.5c0 53.02-42.98 96-96 96s-96-42.98-96-96c0-53.02 42.98-96 96-96s96 42.98 96 96z" opacity=".3"/><path d="m384 276c0 53.02-42.98 96-96 96s-96-42.98-96-96 42.98-96 96-96 96 42.98 96 96z" fill="#d41717"/><path d="m288 247.5v0.0117c-11.633 0.10937-23.336 2.6562-33.469 8.168-4.0391 2.5234-8.8867 5.7852-12.539 9.0703-5.7461 5.4023-10.668 11.699-13.992 18.762 9.1133 19.297 29.141 33.441 51.176 35.531 14.457 1.5703 29.586-0.83203 42.293-7.6992 4.0391-2.5234 8.8867-5.7852 12.539-9.0703 5.7461-5.4141 10.668-11.711 13.992-18.762-9.1094-19.293-29.145-33.434-51.176-35.52-2.9297-0.33592-5.8828-0.49217-8.8242-0.49217zm0.0234 12c12.84-0.28516 24.207 11.207 23.965 23.977 0.41016 14.113-13.648 26.297-27.551 23.66-14.039-1.6484-23.906-17.406-19.289-30.75 2.9531-9.8164 12.598-16.988 22.887-16.875zm-0.0234 12c-3.1875 0-6.2422 1.2656-8.4922 3.5195s-3.5117 5.3086-3.5078 8.4922c4e-3 6.6211 5.375 11.988 12 11.988s11.996-5.3672 12-11.988c-8e-3 -6.6172-5.3789-11.977-12-11.977z" opacity=".3"/><path d="m288 240v0.0117c-11.633 0.10937-23.336 2.6562-33.469 8.168-4.0391 2.5234-8.8867 5.7852-12.539 9.0703-5.7461 5.4023-10.668 11.699-13.992 18.762 9.1133 19.297 29.141 33.441 51.176 35.531 14.457 1.5703 29.586-0.83203 42.293-7.6992 4.0391-2.5234 8.8867-5.7852 12.539-9.0703 5.7461-5.4141 10.668-11.711 13.992-18.762-9.1094-19.293-29.145-33.434-51.176-35.52-2.9297-0.33592-5.8828-0.49217-8.8242-0.49217zm0.0234 12c12.84-0.28516 24.207 11.207 23.965 23.977 0.41016 14.113-13.648 26.297-27.551 23.66-14.039-1.6484-23.906-17.406-19.289-30.75 2.9531-9.8164 12.598-16.988 22.887-16.875zm-0.0234 12c-3.1875 0-6.2422 1.2656-8.4922 3.5195s-3.5117 5.3086-3.5078 8.4922c4e-3 6.6211 5.375 11.988 12 11.988s11.996-5.3672 12-11.988c-8e-3 -6.6172-5.3789-11.977-12-11.977z" fill="#fff"/></g><path transform="scale(.75)" d="m54.4 32c-12.37 0-22.4 10.031-22.4 22.4v10c0-12.37 10.031-22.4 22.4-22.4h403.2c12.37 0 22.4 10.031 22.4 22.4v-10c0-12.37-10.031-22.4-22.4-22.4h-403.2z" opacity=".1" stroke-width="1.3333"/></svg>
